svg/file-symlink-directory.svg

<svg height="1024" width="896" xmlns="http://www.w3.org/2000/svg">
  <path d="M832 192h-352c-16 0-32-16-32-32s0 0 0-32-32-64-64-64h-320c-32 0-64 32-64 64s0 704 0 704h896s0-544 0-576-32-64-64-64z m-768-32c0-17 16-32 32-32h256c15 0 32 15 32 32s0 32 0 32h-320s0-15 0-32z m384 544v-128c-125 0-224 56-256 192 0-209 107-320 256-320 0-49 0-128 0-128l256 192-256 192z" />
</svg>

<svg height="1024" width="896" xmlns="http://www.w3.org/2000/svg">
  <path d="M832 192c0 0-320 0-352 0s-32-32-32-32 0-21.25 0-32c0-64-64-64-64-64s-256 0-320 0S0 128 0 128v704h896c0 0 0-510 0-576S832 192 832 192zM64 160c0 0 0-32 32-32h256c32 0 32 32 32 32v32H64V160zM448 704V576c0 0-192 5.125-256 192 0-314.875 256-320 256-320V320l256 192L448 704z" />
</svg>
